X:78
T:The People That in Darkness Sat
%%stretchlast false
M:4/4
L:1/4
K:Eb clef=C1
"^I"[E,G,E] [E,G,EB] "^V¹"[D,F,FB] "^I"[E,G,EB] | "^I¹"[G,,B,EB] "^IV"[A,,A,Ec] "^V7²"[F,A,DB]/ "^vii°¹"[F,A,DA]/ "^I"[E,B,EG] | [E,B,EG] "^IV¹"[C,CEA] "^V¹"[D,B,FB] "^vi7¹"[E,B,Gc] | "^V/V"[F,=A,Fc] "^V"[B,,B,DB]3 | [B,,F,DB] "^I"[E,G,EB] "^V¹"[D,B,FB] "^I"[E,G,EB] | [E,,G,B,G] "^I¹"[G,,E,EB] "^IV"[A,,E,CA]/ "^IVmaj7"[A,,E,CG]/ "^V"[B,,B,DF] | [B,,F,DB] "^I"[E,G,B,G] "^I¹"[G,,B,E] "^ii7¹"[A,,CEF] | "^V"[B,,B,DF] "^I"[E,,G,E]2 [E,B,EG]2 | "^V¹"[D,F,B,B] "^vi"[C,G,CE] "^ii¹"[A,,A,CF] | "^V"[B,,F,DF] "^I"[E,,G,B,E]3 |]
